!!!COM: Bach, Johann Sebastian
!!!CDT: 1685/3//-1750/7/28/
!!!OTL@@DE: Freu' dich sehr, O meine Seele
!!!OTL@EN:  Rejoice greatly, O my soul
!!!OPR@@DE: Cantata: Brich dem Hungrigen dein Brot, BWV 39
!!!ONB: Chorale is at the conclusion to Part II of the Cantata
!!!AGN: 4-Part Chorale
!!!SCT: BH 067
!!!SCT: BWV 39
!!!ONB: Harmony and Root analysis done manually by Craig Sapp (not yet proofed)
**harm	**root	**kern	**kern	**kern	**kern
!	!	!bass	!tenor	!alto	!sprno
*	*Iorgan	*Iorgan	*Iorgan	*Iorgan	*Iorgan
*	*	*clefF4	*clefF4	*clefG2	*clefG2
*k[f#]	*k[f#]	*k[f#]	*k[f#]	*k[f#]	*k[f#]
*G:	*G:	*G:	*G:	*G:	*G:
*M4/4	*M4/4	*M4/4	*M4/4	*M4/4	*M4/4
*met(c)	*met(c)	*met(c)	*met(c)	*met(c)	*met(c)
*MM60	*MM60	*MM60	*MM60	*MM60	*MM60
*>[A,A,B]	*>[A,A,B]	*>[A,A,B]	*>[A,A,B]	*>[A,A,B]	*>[A,A,B]
*>A	*>A	*>A	*>A	*>A	*>A
I	4GG	4G	4B	4d	4g
Vb	4DD	4F#	4A	4d	4a
I	4GG	4G	4G	4d	4b
V	4DD	4D	4F#	4d	4a
=2	=2	=2	=2	=2	=2
vi7	8EE	4E	4G	8d	4g
viio7b/V	8CC#	.	.	8c#	.
V	4DD	8F#	4A	4d	4f#
.	.	8G	.	.	.
ii	8AA	8A	8A	4c#	4e
ii7	8AA	8AA	8G	.	.
V;	4DD;	4D;	4F#;	4A;	4d;
=3	=3	=3	=3	=3	=3
vi	4EE	4E	4B	4e	4g
Vb	4DD	4F#	4A	4d	4a
I	4GG	4G	8G	4d	4b
.	.	.	8F#	.	.
IVb	4CC	4E	4G	4c	4cc
=4	=4	=4	=4	=4	=4
Ic	4GG	8D	4G	4d	4b
.	.	8C	.	.	.
V	4DD	4D	4F#	8d	4a
.	.	.	.	8c	.
I;	2GG;	2GG;	2D;	2B;	2g;
=5:|!	=5:|!	=5:|!	=5:|!	=5:|!	=5:|!
I	4GG	4GG	4d	4g	4b
viiob	4FF#	4AA	4c	8f#	4cc
.	.	.	.	8e	.
iii	8BB	4BB	8F#	8d	4dd
Vc/II	8EE	.	8G#	16e	.
.	.	.	.	16fn	.
iib	4AA	8C	4A	4e	4cc
.	.	8D	.	.	.
=6	=6	=6	=6	=6	=6
vi	4EE	8E	4Gn	4e	4b
.	.	8D	.	.	.
ii	4AA	4C	4c	4e	4a
V/VI;	2BB;	2BB;	2F#;	2d#;	2b;
!!linebreak: 2
=7	=7	=7	=7	=7	=7
I	4GG	4BB	8G	4dn	4dd
.	.	.	8A	.	.
I	4GG	4GG	4B	4g	4dd
IV	4CC	4C	8c	4g	4ee
.	.	.	8B	.	.
V	4DD	4D	4A	4f#	4dd
=8	=8	=8	=8	=8	=8
IVb	4CC	8E	8G	4e	4cc
.	.	8F#	8A	.	.
I	4GG	4G	8B	8d	4b
.	.	.	8c#	8e	.
V;	2DD;	2D;	2d;	2f#;	2a;
=9	=9	=9	=9	=9	=9
I	4GG	4G	8d	4g	8b
.	.	.	8c	.	8cc
I	4GG	4GG	4B	4g	4dd
ii7	4AA	4AA	4A	8g	4cc
.	.	.	.	8f#	.
Ib	4GG	4BB	4D	8g	8b
.	.	.	.	8f#	8a
=10	=10	=10	=10	=10	=10
IV	4CC	8C	4E	8e	4g
.	.	8BB	.	8d	.
viiob	4FF#	4AA	4F#	4c	4a
I	4GG	8GG	4G	8B	2b
.	.	8AA	.	8c#	.
V/VI	4BB	4BB	4F#	4d#	.
=11	=11	=11	=11	=11	=11
vi;	2EE;	2EE;	2E;	2e;	2g;
vi	4EE	4E	4G	4e	8b
.	.	.	.	.	8cc
viio7/II	4GG#	4BB	4G#	4fn	4dd
=12	=12	=12	=12	=12	=12
iib	4AA	4C	4A	8e	4cc
.	.	.	.	8f#y	.
viiD7/V	4CC#	4C#	4E	4g	4b
V	4DD	8D	4F#	8f#	4a
.	.	8C	.	8e	.
Ib	4GG	8BB	4G	4d	4b
.	.	8GG	.	.	.
=13	=13	=13	=13	=13	=13
V	2DD	2D	4G	4.d	2a
.	.	.	4F#	.	.
.	.	.	.	8c	.
I;	2GG;	2GG;	2D;	2B;	2g;
==	==	==	==	==	==
*-	*-	*-	*-	*-	*-
!!chor2scor: -l 2 -s 0.6 -o %b.pmx
!!!ONB: In the cantata, the key of the chorale is B-flat
!!!YEC: Copyright 2001 by Craig Stuart Sapp
!!!license: GNU General Public License (http://www.gnu.org/copyleft/gpl.html)
!!!SMA: J.S. Bach Chorale Harmonizations, edited by Ludwig Erk, C.F. Peters
!!!PDT: 1850, 1865
